assets/things-icons/transport.svg

<svg xmlns="http://www.w3.org/2000/svg" xmlns:xlink="http://www.w3.org/1999/xlink" viewBox="0 0 22 40" version="1.1" x="0px" y="0px"><title>Ð¢ÑÐ°Ð¼Ð²Ð°Ð¹</title><desc>Created using Figma</desc><g transform="translate(-181 -497)"><g><use xlink:href="#a" transform="translate(182 498)"/></g></g><defs><path id="a" d="M 7 3.63149L 6.52367 3.78351L 6.63473 4.13149L 7 4.13149L 7 3.63149ZM 6.15385 0.980182L 5.67715 1.13105L 5.67752 1.1322L 6.15385 0.980182ZM 13.8462 0.980182L 14.3225 1.1322L 14.3229 1.13105L 13.8462 0.980182ZM 13 3.63149L 13 4.13149L 13.3653 4.13149L 13.4763 3.78351L 13 3.63149ZM 10 0.00160977L 9.98725 0.501447L 10 0.501772L 10.0127 0.501447L 10 0.00160977ZM 4.5 1.20675L 4.80222 1.60507L 4.80222 1.60507L 4.5 1.20675ZM 15.5 1.20675L 15.8022 0.808429L 15.8022 0.808429L 15.5 1.20675ZM 7.47633 3.47948L 6.63018 0.828164L 5.67752 1.1322L 6.52367 3.78351L 7.47633 3.47948ZM 13.3698 0.828163L 12.5237 3.47948L 13.4763 3.78351L 14.3225 1.1322L 13.3698 0.828163ZM 4.19778 0.808429C 3.9006 1.04926 3.6993 1.41343 3.61591 1.64545C 3.57267 1.76951 3.54193 1.89358 3.52686 1.96821C 3.5187 2.00926 3.51228 2.04808 3.50902 2.07006C 3.50716 2.08281 3.5055 2.09532 3.50468 2.10184C 3.50418 2.10594 3.50366 2.11032 3.50342 2.11238C 3.50326 2.11383 3.50307 2.11554 3.50299 2.11626C 3.50293 2.11682 3.50285 2.11755 3.50282 2.11783C 3.50279 2.11807 3.50276 2.11841 3.50275 2.11853C 3.50274 2.11864 3.50272 2.1188 3.50271 2.11885C 3.5027 2.11901 3.50268 2.11916 4 2.17087C 4.49732 2.22257 4.4973 2.22272 4.49729 2.22286C 4.49728 2.22291 4.49727 2.22305 4.49726 2.22314C 4.49727 2.22306 4.49719 2.22383 4.4972 2.22367C 4.49722 2.22354 4.49708 2.22481 4.49711 2.22455C 4.49712 2.22445 4.49696 2.22591 4.49698 2.22568C 4.49694 2.22605 4.49693 2.2261 4.49701 2.22548C 4.49737 2.22253 4.49755 2.22109 4.49834 2.21583C 4.50039 2.2018 4.50252 2.18845 4.50733 2.16485C 4.51819 2.11016 4.53107 2.05494 4.55859 1.97914C 4.61669 1.81142 4.66539 1.69354 4.80222 1.60507L 4.19778 0.808429ZM 15.1978 1.60507C 15.3346 1.69354 15.3833 1.81142 15.4414 1.97914C 15.4689 2.05494 15.4818 2.11016 15.4927 2.16485C 15.4975 2.18845 15.4996 2.2018 15.5017 2.21583C 15.5024 2.22109 15.5026 2.22253 15.503 2.22548C 15.5031 2.2261 15.5031 2.22605 15.503 2.22568C 15.503 2.22591 15.5029 2.22445 15.5029 2.22455C 15.5029 2.22481 15.5028 2.22354 15.5028 2.22367C 15.5028 2.22383 15.5027 2.22306 15.5027 2.22314C 15.5027 2.22305 15.5027 2.22291 15.5027 2.22286C 15.5027 2.22272 15.5027 2.22257 16 2.17087C 16.4973 2.11916 16.4973 2.11901 16.4973 2.11885C 16.4973 2.1188 16.4973 2.11864 16.4973 2.11853C 16.4972 2.11841 16.4972 2.11807 16.4972 2.11783C 16.4971 2.11755 16.4971 2.11682 16.497 2.11626C 16.4969 2.11553 16.4967 2.11383 16.4966 2.11238C 16.4963 2.11032 16.4958 2.10594 16.4953 2.10184C 16.4945 2.09532 16.4928 2.0828 16.491 2.07006C 16.4877 2.04808 16.4813 2.00926 16.4731 1.96821C 16.4581 1.89358 16.4273 1.76951 16.3841 1.64545C 16.3007 1.41343 16.0994 1.04926 15.8022 0.808429L 15.1978 1.60507ZM 19.5 11.7622L 19.5 25.0991L 20.5 25.0991L 20.5 11.7622L 19.5 11.7622ZM 15 29.5L 5 29.5L 5 30.5L 15 30.5L 15 29.5ZM 0.5 25.0991L 0.5 11.7622L -0.5 11.7622L -0.5 25.0991L 0.5 25.0991ZM 5 29.5C 2.50524 29.5 0.5 27.5203 0.5 25.0991L -0.5 25.0991C -0.5 28.0913 1.97192 30.5 5 30.5L 5 29.5ZM 19.5 25.0991C 19.5 27.5203 17.4948 29.5 15 29.5L 15 30.5C 18.0281 30.5 20.5 28.0913 20.5 25.0991L 19.5 25.0991ZM 15 7.36127C 17.4948 7.36127 19.5 9.34102 19.5 11.7622L 20.5 11.7622C 20.5 8.76996 18.0281 6.36127 15 6.36127L 15 7.36127ZM 5 6.36127C 1.97192 6.36127 -0.5 8.76996 -0.5 11.7622L 0.5 11.7622C 0.5 9.34102 2.50524 7.36127 5 7.36127L 5 6.36127ZM 18 11.73L 18 17.9004L 19 17.9004L 19 11.73L 18 11.73ZM 15.5 20.3409L 4.5 20.3409L 4.5 21.3409L 15.5 21.3409L 15.5 20.3409ZM 2 17.9004L 2 11.73L 0.999998 11.73L 0.999998 17.9004L 2 17.9004ZM 4.5 9.28948L 15.5 9.28948L 15.5 8.28948L 4.5 8.28948L 4.5 9.28948ZM 2 11.73C 2 10.3915 3.1098 9.28948 4.5 9.28948L 4.5 8.28948C 2.57648 8.28948 0.999998 9.82048 0.999998 11.73L 2 11.73ZM 4.5 20.3409C 3.1098 20.3409 2 19.2388 2 17.9004L 0.999998 17.9004C 0.999998 19.8099 2.57648 21.3409 4.5 21.3409L 4.5 20.3409ZM 18 17.9004C 18 19.2388 16.8902 20.3409 15.5 20.3409L 15.5 21.3409C 17.4235 21.3409 19 19.8099 19 17.9004L 18 17.9004ZM 19 11.73C 19 9.82048 17.4235 8.28948 15.5 8.28948L 15.5 9.28948C 16.8902 9.28948 18 10.3915 18 11.73L 19 11.73ZM 6.68041 18.3085L 14.0137 11.2383L 13.3197 10.5184L 5.98634 17.5886L 6.68041 18.3085ZM 9.21887 17.7646L 14.0137 13.1418L 13.3197 12.4219L 8.5248 17.0447L 9.21887 17.7646ZM 5 25.3401C 5 25.8456 4.56967 26.2863 4 26.2863L 4 27.2863C 5.08719 27.2863 6 26.432 6 25.3401L 5 25.3401ZM 4 26.2863C 3.43033 26.2863 3 25.8456 3 25.3401L 2 25.3401C 2 26.432 2.91281 27.2863 4 27.2863L 4 26.2863ZM 3 25.3401C 3 24.8347 3.43033 24.394 4 24.394L 4 23.394C 2.91281 23.394 2 24.2482 2 25.3401L 3 25.3401ZM 4 24.394C 4.56967 24.394 5 24.8347 5 25.3401L 6 25.3401C 6 24.2482 5.08719 23.394 4 23.394L 4 24.394ZM 17 25.3401C 17 25.8456 16.5697 26.2863 16 26.2863L 16 27.2863C 17.0872 27.2863 18 26.432 18 25.3401L 17 25.3401ZM 16 26.2863C 15.4303 26.2863 15 25.8456 15 25.3401L 14 25.3401C 14 26.432 14.9128 27.2863 16 27.2863L 16 26.2863ZM 15 25.3401C 15 24.8347 15.4303 24.394 16 24.394L 16 23.394C 14.9128 23.394 14 24.2482 14 25.3401L 15 25.3401ZM 16 24.394C 16.5697 24.394 17 24.8347 17 25.3401L 18 25.3401C 18 24.2482 17.0872 23.394 16 23.394L 16 24.394ZM 5 7.36127L 5.04277 7.36127L 5.04277 6.36127L 5 6.36127L 5 7.36127ZM 5.53374 6.95585C 5.70294 6.07749 6.495 5.40091 7.45902 5.40091L 7.45902 4.40091C 6.02062 4.40091 4.8126 5.41278 4.55179 6.7667L 5.53374 6.95585ZM 5.04277 7.36127L 14.9572 7.36127L 14.9572 6.36127L 5.04277 6.36127L 5.04277 7.36127ZM 14.9572 7.36127L 15 7.36127L 15 6.36127L 14.9572 6.36127L 14.9572 7.36127ZM 15.4482 6.7667C 15.1874 5.41278 13.9794 4.40091 12.541 4.40091L 12.541 5.40091C 13.505 5.40091 14.2971 6.07749 14.4663 6.95585L 15.4482 6.7667ZM 8 3.63149L 8 4.90091L 9 4.90091L 9 3.63149L 8 3.63149ZM 7.45902 5.40091L 8.5 5.40091L 8.5 4.40091L 7.45902 4.40091L 7.45902 5.40091ZM 8.5 5.40091L 11.5 5.40091L 11.5 4.40091L 8.5 4.40091L 8.5 5.40091ZM 11.5 5.40091L 12.541 5.40091L 12.541 4.40091L 11.5 4.40091L 11.5 5.40091ZM 11 3.63149L 11 4.90091L 12 4.90091L 12 3.63149L 11 3.63149ZM 7 4.13149L 8.5 4.13149L 8.5 3.13149L 7 3.13149L 7 4.13149ZM 11.5 4.13149L 13 4.13149L 13 3.13149L 11.5 3.13149L 11.5 4.13149ZM 11.5 3.13149L 8.5 3.13149L 8.5 4.13149L 11.5 4.13149L 11.5 3.13149ZM 10 0.00160977C 10.0127 -0.498228 10.0127 -0.49823 10.0126 -0.498232C 10.0126 -0.498233 10.0125 -0.498235 10.0124 -0.498237C 10.0123 -0.49824 10.012 -0.498245 10.0118 -0.498251C 10.0115 -0.49826 10.0108 -0.498276 10.0101 -0.498292C 10.0088 -0.498321 10.0067 -0.498369 10.0042 -0.498422C 9.99966 -0.498519 9.99227 -0.498664 9.98326 -0.498815C 9.96597 -0.499104 9.93914 -0.499468 9.90576 -0.499712C 9.84051 -0.500181 9.74235 -0.500218 9.62167 -0.498519C 9.38354 -0.495123 9.03869 -0.484472 8.64157 -0.456593C 7.85415 -0.400948 6.79865 -0.269298 5.8546 0.0156783L 6.1454 0.972464C 7.00591 0.708987 7.95041 0.594407 8.71185 0.540934C 9.08916 0.514254 9.40595 0.504625 9.63586 0.50138C 9.7492 0.499759 9.83665 0.499812 9.89852 0.500262C 9.9287 0.500478 9.95079 0.500781 9.96655 0.501045C 9.97406 0.50117 9.97921 0.501272 9.98305 0.501354C 9.98479 0.50139 9.98584 0.501414 9.98672 0.501435C 9.98707 0.501443 9.9872 0.501446 9.98738 0.501451C 9.98743 0.501452 9.98744 0.501452 9.98742 0.501451C 9.98741 0.501451 9.98736 0.50145 9.98736 0.50145C 9.98731 0.501449 9.98725 0.501447 10 0.00160977ZM 5.8546 0.0156783C 5.26192 0.196724 4.65563 0.465397 4.19778 0.808429L 4.80222 1.60507C 5.16215 1.32762 5.6087 1.13467 6.1454 0.972464L 5.8546 0.0156783ZM 6.63054 0.829315L 6.4767 0.343204L 5.5233 0.644938L 5.67715 1.13105L 6.63054 0.829315ZM 10 0.00160977C 10.0127 0.501447 10.0127 0.501449 10.0126 0.50145C 10.0126 0.50145 10.0126 0.501451 10.0126 0.501451C 10.0126 0.501452 10.0126 0.501452 10.0126 0.501451C 10.0128 0.501446 10.0129 0.501443 10.0133 0.501435C 10.0142 0.501414 10.0152 0.50139 10.0169 0.501354C 10.0208 0.501272 10.0259 0.50117 10.0335 0.501045C 10.0492 0.500781 10.0713 0.500478 10.1015 0.500262C 10.1633 0.499812 10.2508 0.499759 10.3641 0.50138C 10.594 0.504625 10.9108 0.514254 11.2882 0.540934C 12.0496 0.594407 12.9941 0.708987 13.8546 0.972464L 14.1454 0.0156783C 13.2014 -0.269298 12.1459 -0.400948 11.3584 -0.456593C 10.9613 -0.484472 10.6165 -0.495123 10.3783 -0.498519C 10.2577 -0.500218 10.1595 -0.500181 10.0942 -0.499712C 10.0609 -0.499468 10.034 -0.499104 10.0167 -0.498815C 10.0077 -0.498664 10.0003 -0.498519 9.99576 -0.498422C 9.99329 -0.498369 9.99116 -0.498321 9.98992 -0.498292C 9.98921 -0.498276 9.98854 -0.49826 9.98818 -0.498251C 9.98796 -0.498245 9.98773 -0.49824 9.98762 -0.498237C 9.98754 -0.498235 9.98745 -0.498233 9.98741 -0.498232C 9.98733 -0.49823 9.98725 -0.498228 10 0.00160977ZM 13.8546 0.972464C 14.3913 1.13467 14.8379 1.32762 15.1978 1.60507L 15.8022 0.808429C 15.3444 0.465397 14.7381 0.196724 14.1454 0.0156783L 13.8546 0.972464ZM 14.3229 1.13105L 14.4767 0.644937L 13.5233 0.343206L 13.3695 0.829317L 14.3229 1.13105Z"/></defs></svg>

<?xml version="1.0" encoding="UTF-8" standalone="no"?>
<svg
   xmlns:dc="http://purl.org/dc/elements/1.1/"
   xmlns:cc="http://creativecommons.org/ns#"
   xmlns:rdf="http://www.w3.org/1999/02/22-rdf-syntax-ns#"
   xmlns:svg="http://www.w3.org/2000/svg"
   xmlns="http://www.w3.org/2000/svg"
   xmlns:xlink="http://www.w3.org/1999/xlink"
   xmlns:sodipodi="http://sodipodi.sourceforge.net/DTD/sodipodi-0.dtd"
   xmlns:inkscape="http://www.inkscape.org/namespaces/inkscape"
   viewBox="0 0 21 30.99999"
   version="1.1"
   x="0px"
   y="0px"
   id="svg75"
   sodipodi:docname="transport.svg"
   width="21"
   height="30.99999"
   inkscape:version="0.92.3 (2405546, 2018-03-11)">
  <metadata
     id="metadata79">
    <rdf:RDF>
      <cc:Work
         rdf:about="">
        <dc:format>image/svg+xml</dc:format>
        <dc:type
           rdf:resource="http://purl.org/dc/dcmitype/StillImage" />
      </cc:Work>
    </rdf:RDF>
  </metadata>
  <sodipodi:namedview
     pagecolor="#ffffff"
     bordercolor="#666666"
     borderopacity="1"
     objecttolerance="10"
     gridtolerance="10"
     guidetolerance="10"
     inkscape:pageopacity="0"
     inkscape:pageshadow="2"
     inkscape:window-width="368"
     inkscape:window-height="1035"
     id="namedview77"
     showgrid="false"
     fit-margin-top="0"
     fit-margin-left="0"
     fit-margin-right="0"
     fit-margin-bottom="0"
     inkscape:zoom="5.9"
     inkscape:cx="10.5"
     inkscape:cy="11.5"
     inkscape:window-x="1540"
     inkscape:window-y="8"
     inkscape:window-maximized="0"
     inkscape:current-layer="svg75" />
  <title
     id="title62">Ð¢ÑÐ°Ð¼Ð²Ð°Ð¹</title>
  <desc
     id="desc64">Created using Figma</desc>
  <g
     transform="translate(-181.5,-497.50001)"
     id="g70">
    <g
       id="g68">
      <use
         xlink:href="#a"
         transform="translate(182,498)"
         id="use66"
         x="0"
         y="0"
         width="100%"
         height="100%" />
    </g>
  </g>
  <defs
     id="defs73">
    <path
       id="a"
       d="M 7,3.63149 6.52367,3.78351 6.63473,4.13149 H 7 Z M 6.15385,0.980182 5.67715,1.13105 5.67752,1.1322 Z m 7.69235,0 0.4763,0.152018 4e-4,-0.00115 z M 13,3.63149 v 0.5 h 0.3653 l 0.111,-0.34798 z M 10,0.00160977 9.98725,0.501447 10,0.501772 10.0127,0.501447 Z M 4.5,1.20675 4.80222,1.60507 v 0 z m 11,0 0.3022,-0.398321 v 0 z M 7.47633,3.47948 6.63018,0.828164 5.67752,1.1322 6.52367,3.78351 Z M 13.3698,0.828163 12.5237,3.47948 13.4763,3.78351 14.3225,1.1322 Z M 4.19778,0.808429 C 3.9006,1.04926 3.6993,1.41343 3.61591,1.64545 3.57267,1.76951 3.54193,1.89358 3.52686,1.96821 3.5187,2.00926 3.51228,2.04808 3.50902,2.07006 3.50716,2.08281 3.5055,2.09532 3.50468,2.10184 c -5e-4,0.0041 -0.00102,0.00848 -0.00126,0.01054 -1.6e-4,0.00145 -3.5e-4,0.00316 -4.3e-4,0.00388 -6e-5,5.6e-4 -1.4e-4,0.00129 -1.7e-4,0.00157 -3e-5,2.4e-4 -6e-5,5.8e-4 -7e-5,7e-4 -10e-6,1.1e-4 -3e-5,2.7e-4 -4e-5,3.2e-4 -1e-5,1.6e-4 -3e-5,3.1e-4 0.49729,0.05202 0.49732,0.0517 0.4973,0.05185 0.49729,0.05199 -10e-6,5e-5 -2e-5,1.9e-4 -3e-5,2.8e-4 1e-5,-8e-5 -7e-5,6.9e-4 -6e-5,5.3e-4 2e-5,-1.3e-4 -1.2e-4,0.00114 -9e-5,8.8e-4 10e-6,-10e-5 -1.5e-4,0.00136 -1.3e-4,0.00113 -4e-5,3.7e-4 -5e-5,4.2e-4 3e-5,-2e-4 C 4.49737,2.22253 4.49755,2.22109 4.49834,2.21583 4.50039,2.2018 4.50252,2.18845 4.50733,2.16485 4.51819,2.11016 4.53107,2.05494 4.55859,1.97914 4.61669,1.81142 4.66539,1.69354 4.80222,1.60507 Z M 15.1978,1.60507 c 0.1368,0.08847 0.1855,0.20635 0.2436,0.37407 0.0275,0.0758 0.0404,0.13102 0.0513,0.18571 0.0048,0.0236 0.0069,0.03695 0.009,0.05098 7e-4,0.00526 9e-4,0.0067 0.0013,0.00965 10e-5,6.2e-4 10e-5,5.7e-4 0,2e-4 0,2.3e-4 -10e-5,-0.00123 -10e-5,-0.00113 0,2.6e-4 -10e-5,-0.00101 -10e-5,-8.8e-4 0,1.6e-4 -10e-5,-6.1e-4 -10e-5,-5.3e-4 0,-9e-5 0,-2.3e-4 0,-2.8e-4 0,-1.4e-4 0,-2.9e-4 0.4973,-0.05199 0.4973,-0.05171 0.4973,-0.05186 0.4973,-0.05202 0,-5e-5 0,-2.1e-4 0,-3.2e-4 -10e-5,-1.2e-4 -10e-5,-4.6e-4 -10e-5,-7e-4 -10e-5,-2.8e-4 -10e-5,-0.00101 -2e-4,-0.00157 -10e-5,-7.3e-4 -3e-4,-0.00243 -4e-4,-0.00388 -3e-4,-0.00206 -8e-4,-0.00644 -0.0013,-0.01054 C 16.4945,2.09532 16.4928,2.0828 16.491,2.07006 16.4877,2.04808 16.4813,2.00926 16.4731,1.96821 16.4581,1.89358 16.4273,1.76951 16.3841,1.64545 16.3007,1.41343 16.0994,1.04926 15.8022,0.808429 Z M 19.5,11.7622 v 13.3369 h 1 V 11.7622 Z M 15,29.5 H 5 v 1 H 15 Z M 0.5,25.0991 V 11.7622 h -1 V 25.0991 Z M 5,29.5 c -2.49476,0 -4.5,-1.9797 -4.5,-4.4009 h -1 C -0.5,28.0913 1.97192,30.5 5,30.5 Z M 19.5,25.0991 C 19.5,27.5203 17.4948,29.5 15,29.5 v 1 c 3.0281,0 5.5,-2.4087 5.5,-5.4009 z M 15,7.36127 c 2.4948,0 4.5,1.97975 4.5,4.40093 h 1 C 20.5,8.76996 18.0281,6.36127 15,6.36127 Z m -10,-1 c -3.02808,0 -5.5,2.40869 -5.5,5.40093 h 1 C 0.5,9.34102 2.50524,7.36127 5,7.36127 Z M 18,11.73 v 6.1704 h 1 V 11.73 Z m -2.5,8.6109 h -11 v 1 h 11 z M 2,17.9004 V 11.73 H 0.999998 v 6.1704 z M 4.5,9.28948 h 11 v -1 H 4.5 Z M 2,11.73 C 2,10.3915 3.1098,9.28948 4.5,9.28948 v -1 c -1.92352,0 -3.500002,1.531 -3.500002,3.44052 z m 2.5,8.6109 C 3.1098,20.3409 2,19.2388 2,17.9004 H 0.999998 c 0,1.9095 1.576482,3.4405 3.500002,3.4405 z M 18,17.9004 c 0,1.3384 -1.1098,2.4405 -2.5,2.4405 v 1 c 1.9235,0 3.5,-1.531 3.5,-3.4405 z M 19,11.73 C 19,9.82048 17.4235,8.28948 15.5,8.28948 v 1 c 1.3902,0 2.5,1.10202 2.5,2.44052 z m -12.31959,6.5785 7.33329,-7.0702 -0.694,-0.7199 -7.33336,7.0702 z m 2.53846,-0.5439 4.79483,-4.6228 -0.694,-0.7199 -4.7949,4.6228 z M 5,25.3401 c 0,0.5055 -0.43033,0.9462 -1,0.9462 v 1 c 1.08719,0 2,-0.8543 2,-1.9462 z m -1,0.9462 c -0.56967,0 -1,-0.4407 -1,-0.9462 H 2 c 0,1.0919 0.91281,1.9462 2,1.9462 z M 3,25.3401 C 3,24.8347 3.43033,24.394 4,24.394 v -1 c -1.08719,0 -2,0.8542 -2,1.9461 z M 4,24.394 c 0.56967,0 1,0.4407 1,0.9461 H 6 C 6,24.2482 5.08719,23.394 4,23.394 Z m 13,0.9461 c 0,0.5055 -0.4303,0.9462 -1,0.9462 v 1 c 1.0872,0 2,-0.8543 2,-1.9462 z m -1,0.9462 c -0.5697,0 -1,-0.4407 -1,-0.9462 h -1 c 0,1.0919 0.9128,1.9462 2,1.9462 z m -1,-0.9462 c 0,-0.5054 0.4303,-0.9461 1,-0.9461 v -1 c -1.0872,0 -2,0.8542 -2,1.9461 z m 1,-0.9461 c 0.5697,0 1,0.4407 1,0.9461 h 1 C 18,24.2482 17.0872,23.394 16,23.394 Z M 5,7.36127 h 0.04277 v -1 H 5 Z M 5.53374,6.95585 C 5.70294,6.07749 6.495,5.40091 7.45902,5.40091 v -1 c -1.4384,0 -2.64642,1.01187 -2.90723,2.36579 z M 5.04277,7.36127 h 9.91443 v -1 H 5.04277 Z m 9.91443,0 H 15 v -1 H 14.9572 Z M 15.4482,6.7667 C 15.1874,5.41278 13.9794,4.40091 12.541,4.40091 v 1 c 0.964,0 1.7561,0.67658 1.9253,1.55494 z M 8,3.63149 V 4.90091 H 9 V 3.63149 Z M 7.45902,5.40091 H 8.5 v -1 H 7.45902 Z m 1.04098,0 h 3 v -1 h -3 z m 3,0 h 1.041 v -1 H 11.5 Z M 11,3.63149 v 1.26942 h 1 V 3.63149 Z m -4,0.5 h 1.5 v -1 H 7 Z m 4.5,0 H 13 v -1 h -1.5 z m 0,-1 h -3 v 1 h 3 z M 10,0.00160977 C 10.0127,-0.498228 10.0127,-0.49823 10.0126,-0.498232 c 0,-10e-7 -1e-4,-3e-6 -2e-4,-5e-6 -10e-5,-3e-6 -4e-4,-8e-6 -6e-4,-1.4e-5 -3e-4,-9e-6 -10e-4,-2.5e-5 -0.0017,-4.1e-5 -0.0013,-2.9e-5 -0.0034,-7.7e-5 -0.0059,-1.3e-4 -0.00454,-9.7e-5 -0.01193,-2.42e-4 -0.02094,-3.93e-4 -0.01729,-2.89e-4 -0.04412,-6.53e-4 -0.0775,-8.97e-4 -0.06525,-4.69e-4 -0.16341,-5.06e-4 -0.28409,0.001193 -0.23813,0.003396 -0.58298,0.014047 -0.9801,0.041926 C 7.85415,-0.400948 6.79865,-0.269298 5.8546,0.0156783 L 6.1454,0.972464 C 7.00591,0.708987 7.95041,0.594407 8.71185,0.540934 9.08916,0.514254 9.40595,0.504625 9.63586,0.50138 9.7492,0.499759 9.83665,0.499812 9.89852,0.500262 c 0.03018,2.16e-4 0.05227,5.19e-4 0.06803,7.83e-4 0.00751,1.25e-4 0.01266,2.27e-4 0.0165,3.09e-4 0.00174,3.6e-5 0.00279,6e-5 0.00367,8.1e-5 3.5e-4,8e-6 4.8e-4,1.1e-5 6.6e-4,1.6e-5 5e-5,1e-6 6e-5,1e-6 4e-5,0 -10e-6,0 -6e-5,-1e-6 -6e-5,-1e-6 -5e-5,-10e-7 -1.1e-4,-3e-6 0.01264,-0.49984023 z M 5.8546,0.0156783 C 5.26192,0.196724 4.65563,0.465397 4.19778,0.808429 L 4.80222,1.60507 C 5.16215,1.32762 5.6087,1.13467 6.1454,0.972464 Z M 6.63054,0.829315 6.4767,0.343204 5.5233,0.644938 5.67715,1.13105 Z M 10,0.00160977 C 10.0127,0.501447 10.0127,0.501449 10.0126,0.50145 c 0,0 0,1e-6 0,1e-6 0,1e-6 0,1e-6 0,0 2e-4,-5e-6 3e-4,-8e-6 7e-4,-1.6e-5 9e-4,-2.1e-5 0.0019,-4.5e-5 0.0036,-8.1e-5 0.0039,-8.2e-5 0.009,-1.84e-4 0.0166,-3.09e-4 0.0157,-2.64e-4 0.0378,-5.67e-4 0.068,-7.83e-4 0.0618,-4.5e-4 0.1493,-5.03e-4 0.2626,0.001118 0.2299,0.003245 0.5467,0.012874 0.9241,0.039554 0.7614,0.053473 1.7059,0.168053 2.5664,0.43153 l 0.2908,-0.9567857 c -0.944,-0.2849763 -1.9995,-0.4166263 -2.787,-0.4722713 -0.3971,-0.027879 -0.7419,-0.03853 -0.9801,-0.041926 -0.1206,-0.001699 -0.2188,-0.001662 -0.2841,-0.001193 -0.0333,2.44e-4 -0.0602,6.08e-4 -0.0775,8.97e-4 -0.009,1.51e-4 -0.0164,2.96e-4 -0.02094,3.93e-4 -0.00247,5.3e-5 -0.0046,1.01e-4 -0.00584,1.3e-4 -7.1e-4,1.6e-5 -0.00138,3.2e-5 -0.00174,4.1e-5 -2.2e-4,6e-6 -4.5e-4,1.1e-5 -5.6e-4,1.4e-5 -8e-5,2e-6 -1.7e-4,4e-6 -2.1e-4,5e-6 -8e-5,2e-6 -1.6e-4,4e-6 0.01259,0.49984177 z M 13.8546,0.972464 C 14.3913,1.13467 14.8379,1.32762 15.1978,1.60507 L 15.8022,0.808429 C 15.3444,0.465397 14.7381,0.196724 14.1454,0.0156783 Z M 14.3229,1.13105 14.4767,0.644937 13.5233,0.343206 13.3695,0.829317 Z"
       inkscape:connector-curvature="0" />
  </defs>
</svg>
